X:218
T:Witches,The.  (p)1675.PLFD.218
T:Turnham Green.  (p)1675.PLFD.218
M:6/4
L:1/4
Q:3/4=80
S:Playford, Dancing Master,5th Ed.,1675.
O:England
H:1675.
Z:Chris Partington.
K:F
c|d>eff2e|f3A>Bc|d3G3|C3-C2c|
d>edc2d|B2AD2f|f>edd2^c|d3-d2:|
|:g/f/|e>dcc2=B|c3A2f|g3b3|c3-c2d|
d>edc2d|B2AD2f|f>edd2^c|d3-d2:|
